www/assets/icons/panorama_vertical.svg

<svg width="24" height="24" viewBox="0 0 24 24" xmlns="http://www.w3.org/2000/svg" fill='currentColor'><path d="M19.935 21.12C18.835 18.18 18.295 15.09 18.295 12C18.295 8.91 18.845 5.82 19.935 2.88C19.975 2.77 19.995 2.66 19.995 2.57C19.995 2.23 19.765 2 19.365 2H4.625C4.225 2 3.995 2.23 3.995 2.57C3.995 2.67 4.015 2.77 4.055 2.88C5.155 5.82 5.705 8.91 5.705 12C5.705 15.09 5.155 18.18 4.065 21.12C4.015 21.23 3.995 21.34 3.995 21.43C3.995 21.76 4.225 22 4.625 22H19.375C19.765 22 20.005 21.76 20.005 21.43C19.995 21.33 19.975 21.23 19.935 21.12ZM6.535 20C7.305 17.4 7.69499 14.72 7.69499 12C7.69499 9.28 7.305 6.6 6.535 4H17.445C16.675 6.6 16.285 9.28 16.285 12C16.285 14.72 16.675 17.4 17.445 20H6.535Z"/></svg>

<svg xmlns="http://www.w3.org/2000/svg" width="24" height="24" viewBox="0 0 24 24" fill='currentColor'><path d="M19.935 21.12c-1.1-2.94-1.64-6.03-1.64-9.12s.55-6.18 1.64-9.12a1 1 0 0 0 .06-.31c0-.34-.23-.57-.63-.57H4.625c-.4 0-.63.23-.63.57 0 .1.02.2.06.31 1.1 2.94 1.65 6.03 1.65 9.12s-.55 6.18-1.64 9.12c-.05.11-.07.22-.07.31 0 .33.23.57.63.57h14.75c.39 0 .63-.24.63-.57-.01-.1-.03-.2-.07-.31M6.535 20c.77-2.6 1.16-5.28 1.16-8s-.39-5.4-1.16-8h10.91c-.77 2.6-1.16 5.28-1.16 8s.39 5.4 1.16 8z"/></svg>
